X: 03036
T: The GOLD-DUST TWINS
C: Bob McQuillen July'76
B: Bob's Note Book 03 #36
%R: jig
%D:1976
Z: 2020 John Chambers <jc:trillian.mit.edu>
M: 6/8
L: 1/8
K: G
Bc \
| ded dBc | d2g d2d | e3  d3  | dcB ABc |\
| ded dBc | d2g d2c | BAG AGF | G3- G  :|
|: Bc \
| ded dga | bag aga | b2g gab | age dBc |\
| ded dga | bag aga | b2g aba | g3- g  :|
%%begintext align
%% For Hilton and Lithgow,
%% Kevin and Tim - old
%% friends who brighten my life
%%endtext

%%sep 1 1 500

%%sep 1 1 500

